**kern	**kern	**dynam
*part1	*part1	*part1
*staff2	*staff1	*
*I"Piano	*	*
*clefF4	*clefG2	*
*k[b-e-]	*k[b-e-]	*
=1	=1	=1
*	*^	*
4FFn	(8aL	4.d	.
.	8cc#X	.	.
8D 8A	8ddJ)	.	.
=	=	=	=
4DD	(8aL	4.fn	.
.	8cc#X	.	.
8D 8A	8ddJ)	.	.
*	*v	*v	*
=	=	=
4EEn	4en 4ccn	.
8En 8G#X	8d 8bn	.
=	=	=
4AA	(8cL 8a	.
.	8en 8bn	.
8En 8A	8aJ) 8cc	.
=	=	=
!	!	!LO:DY:a
4DD	(8f#XL 8a	pp
.	8g 8b-X	.
8D 8F#X	8aJ 8cc	.
=	=	=
4GG	8b-L 8dd	.
.	8a 8cc	.
8D 8G	8gJ) 8b-	.
=	=	=
4FFn	(8aL 8cc	.
.	8b- 8dd	.
8F 8A	8ccJ 8ee-	.
=	=	=
4BB-	8ddL 8ff	.
.	8cc 8ee-	.
8F 8B-	8b-J) 8dd	.
=	=	=
*-	*-	*-
!!!system-decoration: {(s1,s2)}
